X: 20888
T: Jordan Is A Hard Road To Travel
R: reel
M: 4/4
K: Gmajor
(3def|:g2g2 f2f2|efe^c d2ef|g3g a2g2|fed2 d2ef|
g2bg f2f2|efe^c d2Bc|dedB dBAB|1 A2G4 ef:|2 A2 G4 BA||
|:G2GA BAGF|GABc d2e2|dedB dBAG|ABAG FDEF|
G2GA BAGF|GABc d2ef|gagf gfed|1 ABAF G2BA:|2 ABAF G4||

